neru-light-classic/32x32/apps/portal.svg

<?xml version="1.0" encoding="UTF-8" standalone="no"?>
<svg
   xmlns:dc="http://purl.org/dc/elements/1.1/"
   xmlns:cc="http://creativecommons.org/ns#"
   xmlns:rdf="http://www.w3.org/1999/02/22-rdf-syntax-ns#"
   xmlns:svg="http://www.w3.org/2000/svg"
   xmlns="http://www.w3.org/2000/svg"
   xmlns:sodipodi="http://sodipodi.sourceforge.net/DTD/sodipodi-0.dtd"
   xmlns:inkscape="http://www.inkscape.org/namespaces/inkscape"
   height="32"
   width="32"
   version="1"
   id="svg12"
   sodipodi:docname="portal.svg"
   inkscape:version="0.92.1 r">
  <metadata
     id="metadata18">
    <rdf:RDF>
      <cc:Work
         rdf:about="">
        <dc:format>image/svg+xml</dc:format>
        <dc:type
           rdf:resource="http://purl.org/dc/dcmitype/StillImage" />
      </cc:Work>
    </rdf:RDF>
  </metadata>
  <defs
     id="defs16" />
  <sodipodi:namedview
     pagecolor="#ffffff"
     bordercolor="#666666"
     borderopacity="1"
     objecttolerance="10"
     gridtolerance="10"
     guidetolerance="10"
     inkscape:pageopacity="0"
     inkscape:pageshadow="2"
     inkscape:window-width="640"
     inkscape:window-height="480"
     id="namedview14"
     showgrid="false"
     inkscape:zoom="6.7175144"
     inkscape:cx="-13.958807"
     inkscape:cy="20.442926"
     inkscape:current-layer="svg12" />
  <g
     id="g4535">
    <rect
       ry="5.575182"
       y="1.8983059"
       x="1.8983059"
       height="28.203388"
       width="28.203388"
       id="rect4497-3"
       style="opacity:1;fill:#f2f2f2;fill-opacity:1;fill-rule:evenodd;stroke:none;stroke-width:1.03534329;stroke-linecap:round;stroke-linejoin:bevel;stroke-miterlimit:4;stroke-dasharray:none;stroke-dashoffset:0;stroke-opacity:1" />
    <circle
       style="fill:#56aad4;stroke-width:1"
       id="circle2"
       r="14.105264"
       cx="16"
       cy="16" />
    <path
       id="path4522"
       d="M 23.285156 1.8984375 L 13.917969 1.8984375 L 22.009766 9.9902344 L 22.007812 9.9921875 A 8.4999999 8.4999999 0 0 1 22.277344 10.275391 A 8.4999999 8.4999999 0 0 1 22.814453 10.933594 A 8.4999999 8.4999999 0 0 1 23.285156 11.640625 L 23.285156 1.8984375 z "
       style="opacity:1;fill:#56aad4;fill-opacity:1;fill-rule:evenodd;stroke:none;stroke-width:1.03534329;stroke-linecap:round;stroke-linejoin:bevel;stroke-miterlimit:4;stroke-dasharray:none;stroke-dashoffset:0;stroke-opacity:1" />
    <path
       id="path4520"
       d="M 30.101562 12.203125 L 30.101562 7.4726562 C 30.101563 4.3840054 27.615995 1.8984375 24.527344 1.8984375 L 24.5 1.8984375 L 24.5 16 A 8.4999999 8.4999999 0 0 1 24.488281 16.390625 A 8.4999999 8.4999999 0 0 1 24.404297 17.236328 A 8.4999999 8.4999999 0 0 1 24.234375 18.068359 L 30.101562 12.203125 z M 28.105469 4.0722656 A 17 17 0 0 1 28.564453 4.5761719 C 28.411453 4.4079933 28.26454 4.2341299 28.105469 4.0722656 z M 29.158203 5.2519531 A 17 17 0 0 1 29.623047 5.8613281 C 29.470047 5.6562353 29.319703 5.4497602 29.158203 5.2519531 z M 30.109375 6.5390625 C 30.253875 6.7542339 30.388651 6.9751727 30.523438 7.1972656 A 17 17 0 0 0 30.109375 6.5390625 z M 30.939453 7.9199219 C 31.063311 8.1490576 31.182732 8.3797844 31.296875 8.6152344 A 17 17 0 0 0 30.939453 7.9199219 z "
       style="opacity:1;fill:#56aad4;fill-opacity:1;fill-rule:evenodd;stroke:none;stroke-width:1.03534329;stroke-linecap:round;stroke-linejoin:bevel;stroke-miterlimit:4;stroke-dasharray:none;stroke-dashoffset:0;stroke-opacity:1" />
    <path
       id="path4518"
       d="M 30.101562 23.285156 L 30.101562 13.917969 L 22.009766 22.009766 L 22.007812 22.007812 A 8.4999999 8.4999999 0 0 1 21.724609 22.277344 A 8.4999999 8.4999999 0 0 1 21.066406 22.814453 A 8.4999999 8.4999999 0 0 1 20.359375 23.285156 L 30.101562 23.285156 z "
       style="opacity:1;fill:#56aad4;fill-opacity:1;fill-rule:evenodd;stroke:none;stroke-width:1.03534329;stroke-linecap:round;stroke-linejoin:bevel;stroke-miterlimit:4;stroke-dasharray:none;stroke-dashoffset:0;stroke-opacity:1" />
    <path
       id="path4516"
       d="M 19.798828 30.101562 L 24.527344 30.101562 C 27.615995 30.101563 30.101562 27.615995 30.101562 24.527344 L 30.101562 24.5 L 16 24.5 A 8.4999999 8.4999999 0 0 1 15.609375 24.488281 A 8.4999999 8.4999999 0 0 1 14.765625 24.404297 A 8.4999999 8.4999999 0 0 1 13.931641 24.234375 L 19.798828 30.101562 z M 27.925781 28.105469 A 17 17 0 0 1 27.457031 28.533203 C 27.613674 28.389917 27.77521 28.253612 27.925781 28.105469 z M 26.734375 29.171875 A 17 17 0 0 1 26.175781 29.595703 C 26.362781 29.45606 26.553446 29.318804 26.734375 29.171875 z "
       style="opacity:1;fill:#56aad4;fill-opacity:1;fill-rule:evenodd;stroke:none;stroke-width:1.03534329;stroke-linecap:round;stroke-linejoin:bevel;stroke-miterlimit:4;stroke-dasharray:none;stroke-dashoffset:0;stroke-opacity:1" />
    <path
       id="path4514"
       d="M 8.7148438 30.101562 L 18.082031 30.101562 L 9.9902344 22.009766 L 9.9921875 22.007812 A 8.4999999 8.4999999 0 0 1 9.7246094 21.724609 A 8.4999999 8.4999999 0 0 1 9.1855469 21.066406 A 8.4999999 8.4999999 0 0 1 8.7148438 20.359375 L 8.7148438 30.101562 z "
       style="opacity:1;fill:#56aad4;fill-opacity:1;fill-rule:evenodd;stroke:none;stroke-width:1.03534329;stroke-linecap:round;stroke-linejoin:bevel;stroke-miterlimit:4;stroke-dasharray:none;stroke-dashoffset:0;stroke-opacity:1" />
    <path
       id="path4512"
       d="M 1.8984375 19.796875 L 1.8984375 24.527344 C 1.8984375 27.615995 4.3840054 30.101562 7.4726562 30.101562 L 7.5 30.101562 L 7.5 16 A 8.4999999 8.4999999 0 0 1 7.5117188 15.609375 A 8.4999999 8.4999999 0 0 1 7.5957031 14.765625 A 8.4999999 8.4999999 0 0 1 7.765625 13.931641 L 1.8984375 19.796875 z M 2.3535156 26.107422 C 2.5144085 26.324779 2.6729 26.543096 2.84375 26.751953 A 17 17 0 0 1 2.3535156 26.107422 z M 3.4335938 27.423828 C 3.5864724 27.592613 3.7352171 27.764281 3.8945312 27.925781 A 17 17 0 0 1 3.4335938 27.423828 z "
       style="opacity:1;fill:#56aad4;fill-opacity:1;fill-rule:evenodd;stroke:none;stroke-width:1.03534329;stroke-linecap:round;stroke-linejoin:bevel;stroke-miterlimit:4;stroke-dasharray:none;stroke-dashoffset:0;stroke-opacity:1" />
    <path
       id="path4510"
       d="M 1.8984375 8.7148438 L 1.8984375 18.082031 L 9.9902344 9.9902344 L 9.9921875 9.9921875 A 8.4999999 8.4999999 0 0 1 10.277344 9.7226562 A 8.4999999 8.4999999 0 0 1 10.933594 9.1855469 A 8.4999999 8.4999999 0 0 1 11.640625 8.7148438 L 1.8984375 8.7148438 z "
       style="opacity:1;fill:#56aad4;fill-opacity:1;fill-rule:evenodd;stroke:none;stroke-width:1.03534329;stroke-linecap:round;stroke-linejoin:bevel;stroke-miterlimit:4;stroke-dasharray:none;stroke-dashoffset:0;stroke-opacity:1" />
    <path
       id="path4508"
       d="M 12.203125 1.8984375 L 7.4726562 1.8984375 C 4.3840054 1.8984375 1.8984375 4.3840054 1.8984375 7.4726562 L 1.8984375 7.5 L 16 7.5 A 8.4999999 8.4999999 0 0 1 16.390625 7.5117188 A 8.4999999 8.4999999 0 0 1 17.236328 7.5957031 A 8.4999999 8.4999999 0 0 1 18.068359 7.765625 L 12.203125 1.8984375 z M 5.8613281 2.3769531 C 5.6562353 2.5294674 5.4497602 2.6804183 5.2519531 2.8417969 A 17 17 0 0 1 5.8613281 2.3769531 z M 4.5761719 3.4355469 C 4.4079933 3.5884254 4.2341299 3.7352169 4.0722656 3.8945312 A 17 17 0 0 1 4.5761719 3.4355469 z "
       style="opacity:1;fill:#56aad4;fill-opacity:1;fill-rule:evenodd;stroke:none;stroke-width:1.03534329;stroke-linecap:round;stroke-linejoin:bevel;stroke-miterlimit:4;stroke-dasharray:none;stroke-dashoffset:0;stroke-opacity:1" />
    <path
       id="rect4497-3-3"
       d="M 12.203125 1.8984375 L 18.068359 7.765625 A 8.4999999 8.4999999 0 0 0 17.236328 7.5957031 A 8.4999999 8.4999999 0 0 0 16.390625 7.5117188 A 8.4999999 8.4999999 0 0 0 16 7.5 L 1.8984375 7.5 L 1.8984375 8.7148438 L 11.640625 8.7148438 A 8.4999999 8.4999999 0 0 0 10.933594 9.1855469 A 8.4999999 8.4999999 0 0 0 10.277344 9.7226562 A 8.4999999 8.4999999 0 0 0 9.9921875 9.9921875 L 9.9902344 9.9902344 L 1.8984375 18.082031 L 1.8984375 19.796875 L 7.765625 13.931641 A 8.4999999 8.4999999 0 0 0 7.5957031 14.765625 A 8.4999999 8.4999999 0 0 0 7.5117188 15.609375 A 8.4999999 8.4999999 0 0 0 7.5 16 L 7.5 30.101562 L 8.7148438 30.101562 L 8.7148438 20.359375 A 8.4999999 8.4999999 0 0 0 9.1855469 21.066406 A 8.4999999 8.4999999 0 0 0 9.7246094 21.724609 A 8.4999999 8.4999999 0 0 0 9.9921875 22.007812 L 9.9902344 22.009766 L 18.082031 30.101562 L 19.798828 30.101562 L 13.931641 24.234375 A 8.4999999 8.4999999 0 0 0 14.765625 24.404297 A 8.4999999 8.4999999 0 0 0 15.609375 24.488281 A 8.4999999 8.4999999 0 0 0 16 24.5 L 30.101562 24.5 L 30.101562 23.285156 L 20.359375 23.285156 A 8.4999999 8.4999999 0 0 0 21.066406 22.814453 A 8.4999999 8.4999999 0 0 0 21.724609 22.277344 A 8.4999999 8.4999999 0 0 0 22.007812 22.007812 L 22.009766 22.009766 L 30.101562 13.917969 L 30.101562 12.203125 L 24.234375 18.068359 A 8.4999999 8.4999999 0 0 0 24.404297 17.236328 A 8.4999999 8.4999999 0 0 0 24.488281 16.390625 A 8.4999999 8.4999999 0 0 0 24.5 16 L 24.5 1.8984375 L 23.285156 1.8984375 L 23.285156 11.640625 A 8.4999999 8.4999999 0 0 0 22.814453 10.933594 A 8.4999999 8.4999999 0 0 0 22.277344 10.275391 A 8.4999999 8.4999999 0 0 0 22.007812 9.9921875 L 22.009766 9.9902344 L 13.917969 1.8984375 L 12.203125 1.8984375 z "
       style="opacity:1;fill:#f2f2f2;fill-opacity:1;fill-rule:evenodd;stroke:none;stroke-width:1.03534329;stroke-linecap:round;stroke-linejoin:bevel;stroke-miterlimit:4;stroke-dasharray:none;stroke-dashoffset:0;stroke-opacity:1" />
  </g>
</svg>

<svg xmlns="http://www.w3.org/2000/svg" height="32" width="32" version="1"><rect ry="5.575" y="1.898" x="1.898" height="28.203" width="28.203" fill="#f2f2f2" fill-rule="evenodd"/><circle r="14.105" cx="16" cy="16" fill="#56aad4"/><path d="M23.285 1.898h-9.367L22.01 9.99l-.002.002a8.5 8.5 0 0 1 .27.283 8.5 8.5 0 0 1 .536.659 8.5 8.5 0 0 1 .471.707V1.898zM30.102 12.203v-4.73a5.561 5.561 0 0 0-5.575-5.575H24.5V16a8.5 8.5 0 0 1-.012.39 8.5 8.5 0 0 1-.084.846 8.5 8.5 0 0 1-.17.832l5.868-5.865zm-1.997-8.13a17 17 0 0 1 .46.503c-.154-.168-.3-.342-.46-.504zm1.053 1.179a17 17 0 0 1 .465.61c-.153-.206-.303-.412-.465-.61zm.951 1.287c.145.215.28.436.414.658a17 17 0 0 0-.414-.658zm.83 1.38c.124.23.244.46.358.696a17 17 0 0 0-.358-.695zM30.102 23.285v-9.367L22.01 22.01l-.002-.002a8.5 8.5 0 0 1-.283.27 8.5 8.5 0 0 1-.659.536 8.5 8.5 0 0 1-.707.471h9.743zM19.799 30.102h4.728a5.561 5.561 0 0 0 5.575-5.575V24.5H16a8.5 8.5 0 0 1-.39-.012 8.5 8.5 0 0 1-.844-.084 8.5 8.5 0 0 1-.834-.17l5.867 5.868zm8.127-1.997a17 17 0 0 1-.469.428c.157-.143.318-.28.469-.428zm-1.192 1.067a17 17 0 0 1-.558.424c.187-.14.377-.277.558-.424zM8.715 30.102h9.367L9.99 22.01l.002-.002a8.5 8.5 0 0 1-.267-.283 8.5 8.5 0 0 1-.54-.659 8.5 8.5 0 0 1-.47-.707v9.743zM1.898 19.797v4.73a5.561 5.561 0 0 0 5.575 5.575H7.5V16a8.5 8.5 0 0 1 .012-.39 8.5 8.5 0 0 1 .084-.844 8.5 8.5 0 0 1 .17-.834l-5.868 5.865zm.456 6.31c.16.218.319.436.49.645a17 17 0 0 1-.49-.645zm1.08 1.317c.152.169.301.34.46.502a17 17 0 0 1-.46-.502zM1.898 8.715v9.367L9.99 9.99l.002.002a8.5 8.5 0 0 1 .285-.27 8.5 8.5 0 0 1 .657-.536 8.5 8.5 0 0 1 .707-.471H1.898zM12.203 1.898h-4.73a5.561 5.561 0 0 0-5.575 5.575V7.5H16a8.5 8.5 0 0 1 .39.012 8.5 8.5 0 0 1 .846.084 8.5 8.5 0 0 1 .832.17l-5.865-5.868zm-6.342.479c-.205.152-.411.303-.609.465a17 17 0 0 1 .61-.465zM4.576 3.436c-.168.152-.342.3-.504.459a17 17 0 0 1 .504-.46z" fill="#56aad4" fill-rule="evenodd"/><path d="M12.203 1.898l5.865 5.868a8.5 8.5 0 0 0-.832-.17 8.5 8.5 0 0 0-.845-.084A8.5 8.5 0 0 0 16 7.5H1.898v1.215h9.743a8.5 8.5 0 0 0-.707.47 8.5 8.5 0 0 0-.657.538 8.5 8.5 0 0 0-.285.27L9.99 9.99l-8.092 8.092v1.715l5.868-5.865a8.5 8.5 0 0 0-.17.834 8.5 8.5 0 0 0-.084.843A8.5 8.5 0 0 0 7.5 16v14.102h1.215v-9.743a8.5 8.5 0 0 0 .47.707 8.5 8.5 0 0 0 .54.659 8.5 8.5 0 0 0 .267.283l-.002.002 8.092 8.092h1.717l-5.867-5.868a8.5 8.5 0 0 0 .834.17 8.5 8.5 0 0 0 .843.084A8.5 8.5 0 0 0 16 24.5h14.102v-1.215h-9.743a8.5 8.5 0 0 0 .707-.47 8.5 8.5 0 0 0 .659-.538 8.5 8.5 0 0 0 .283-.27l.002.003 8.092-8.092v-1.715l-5.868 5.865a8.5 8.5 0 0 0 .17-.832 8.5 8.5 0 0 0 .084-.845A8.5 8.5 0 0 0 24.5 16V1.898h-1.215v9.743a8.5 8.5 0 0 0-.47-.707 8.5 8.5 0 0 0-.538-.659 8.5 8.5 0 0 0-.27-.283l.003-.002-8.092-8.092h-1.715z" fill="#f2f2f2" fill-rule="evenodd"/></svg>
